images/thingsboard-p-icon.svg

<svg width="32" height="32" viewBox="0 0 32 32" fill="none" xmlns="http://www.w3.org/2000/svg">
    <path fill-rule="evenodd" clip-rule="evenodd" d="M8.22682 9.21311C8.56103 8.86389 8.65083 8.33654 8.4087 7.91812L8.22203 7.59555C7.94017 7.10846 8.1072 6.48507 8.59486 6.20417L10.3581 5.18848C10.8444 4.90837 11.4657 5.07483 11.7467 5.56056L11.9299 5.87704C12.1721 6.29554 12.6742 6.48031 13.1437 6.36496C13.9242 6.17321 14.7401 6.07151 15.5797 6.07151C16.4376 6.07151 17.2706 6.17766 18.0664 6.37754C18.5124 6.48957 18.9912 6.3303 19.2458 5.94731L19.5126 5.54594C19.8098 5.09908 20.4028 4.95974 20.8678 5.22754L22.4254 6.12454C22.9347 6.41783 23.0903 7.08031 22.7649 7.5697L22.6588 7.72932C22.373 8.15918 22.4586 8.7312 22.8213 9.09848C23.993 10.2854 24.8751 11.759 25.3529 13.4044C25.4878 13.8692 25.8994 14.2119 26.3834 14.2119H26.7722C27.3342 14.2119 27.7898 14.6675 27.7898 15.2295V17.2641C27.7898 17.8261 27.3342 18.2817 26.7722 18.2817H26.3835C25.8995 18.2817 25.4879 18.6244 25.353 19.0891C24.8904 20.6826 24.0487 22.1148 22.932 23.2816C22.5978 23.6308 22.5079 24.1582 22.75 24.5766L22.937 24.8998C23.2189 25.3869 23.0518 26.0103 22.5642 26.2912L20.8009 27.3069C20.3147 27.587 19.6934 27.4205 19.4123 26.9348L19.2285 26.6172C18.9864 26.1987 18.4844 26.014 18.0148 26.1292C17.2346 26.3208 16.419 26.4225 15.5797 26.4225C14.7095 26.4225 13.8647 26.3132 13.0584 26.1077C12.5863 25.9873 12.0788 26.1714 11.8349 26.5931L11.6639 26.8885C11.3828 27.3744 10.7615 27.5408 10.2752 27.2607L8.71417 26.3613C8.22656 26.0804 8.05958 25.4571 8.34134 24.97L8.50949 24.6794C8.75421 24.2564 8.65958 23.7229 8.31728 23.3742C7.15595 22.191 6.28148 20.7252 5.80656 19.0894C5.67162 18.6247 5.25995 18.282 4.776 18.282H4.38669C3.82471 18.282 3.36914 17.8264 3.36914 17.2645V15.2298C3.36914 14.6678 3.82471 14.2122 4.38669 14.2122H4.77594C5.2599 14.2122 5.67156 13.8696 5.80649 13.4048C6.26899 11.8117 7.11046 10.3798 8.22682 9.21311ZM15.5797 23.8786C16.8891 23.8786 18.1214 23.5489 19.1982 22.9679C19.458 23.0634 19.7386 23.1155 20.0315 23.1155C21.3662 23.1155 22.4482 22.0335 22.4482 20.6988C22.4482 20.4059 22.3961 20.1252 22.3006 19.8655C22.8816 18.7886 23.2113 17.5563 23.2113 16.247C23.2113 12.0322 19.7946 8.6154 15.5797 8.6154C14.2704 8.6154 13.0381 8.94514 11.9613 9.52611C11.7015 9.43066 11.4208 9.37856 11.1279 9.37856C9.79323 9.37856 8.71127 10.4605 8.71127 11.7952C8.71127 12.0881 8.76337 12.3688 8.85881 12.6286C8.27785 13.7054 7.94811 14.9377 7.94811 16.247C7.94811 20.4619 11.3649 23.8786 15.5797 23.8786Z" fill="#CFE5D8"/>
    <path fill-rule="evenodd" clip-rule="evenodd" d="M15.5799 21.8453C18.6707 21.8453 21.1764 19.3397 21.1764 16.2488C21.1764 13.158 18.6707 10.6523 15.5799 10.6523C12.489 10.6523 9.98337 13.158 9.98337 16.2488C9.98337 19.3397 12.489 21.8453 15.5799 21.8453ZM15.5799 22.8629C19.2327 22.8629 22.1939 19.9017 22.1939 16.2488C22.1939 12.596 19.2327 9.63477 15.5799 9.63477C11.927 9.63477 8.96582 12.596 8.96582 16.2488C8.96582 19.9017 11.927 22.8629 15.5799 22.8629Z" fill="#CFE5D8"/>
    <path fill-rule="evenodd" clip-rule="evenodd" d="M20.031 20.3169C19.8202 20.3169 19.6494 20.4877 19.6494 20.6984C19.6494 20.9092 19.8202 21.08 20.031 21.08C20.2417 21.08 20.4125 20.9092 20.4125 20.6984C20.4125 20.4877 20.2417 20.3169 20.031 20.3169ZM18.6318 20.6984C18.6318 19.9257 19.2582 19.2993 20.031 19.2993C20.8037 19.2993 21.4301 19.9257 21.4301 20.6984C21.4301 21.4712 20.8037 22.0976 20.031 22.0976C19.2582 22.0976 18.6318 21.4712 18.6318 20.6984Z" fill="#00695C"/>
    <path fill-rule="evenodd" clip-rule="evenodd" d="M11.1267 11.4155C10.9159 11.4155 10.7451 11.5863 10.7451 11.7971C10.7451 12.0078 10.9159 12.1787 11.1267 12.1787C11.3374 12.1787 11.5082 12.0078 11.5082 11.7971C11.5082 11.5863 11.3374 11.4155 11.1267 11.4155ZM9.72754 11.7971C9.72754 11.0244 10.3539 10.3979 11.1267 10.3979C11.8994 10.3979 12.5258 11.0244 12.5258 11.7971C12.5258 12.5698 11.8994 13.1962 11.1267 13.1962C10.3539 13.1962 9.72754 12.5698 9.72754 11.7971Z" fill="#00695C"/>
    <path fill-rule="evenodd" clip-rule="evenodd" d="M12.0069 11.9411C12.9762 11.1363 14.2215 10.6523 15.5799 10.6523C15.8609 10.6523 16.0887 10.4245 16.0887 10.1435C16.0887 9.86254 15.8609 9.63477 15.5799 9.63477C14.0601 9.63477 12.66 10.1474 11.5431 11.0091C11.8258 11.1583 12.0185 11.4552 12.0185 11.7971C12.0185 11.8461 12.0145 11.8942 12.0069 11.9411ZM11.2722 12.6758C11.2253 12.6834 11.1772 12.6874 11.1281 12.6874C10.7863 12.6874 10.4894 12.4947 10.3402 12.2121C9.47841 13.3289 8.96582 14.729 8.96582 16.2488C8.96582 16.5298 9.1936 16.7576 9.47459 16.7576C9.75559 16.7576 9.98337 16.5298 9.98337 16.2488C9.98337 14.8905 10.4673 13.6451 11.2722 12.6758Z" fill="#00695C"/>
    <path fill-rule="evenodd" clip-rule="evenodd" d="M19.1521 20.5533C18.1828 21.3582 16.9375 21.8421 15.5791 21.8421C15.2981 21.8421 15.0703 22.0699 15.0703 22.3509C15.0703 22.6319 15.2981 22.8597 15.5791 22.8597C17.0989 22.8597 18.499 22.3471 19.6159 21.4853C19.3332 21.3361 19.1405 21.0392 19.1405 20.6974C19.1405 20.6483 19.1445 20.6002 19.1521 20.5533ZM19.8868 19.8186C19.9337 19.811 19.9818 19.807 20.0309 19.807C20.3727 19.807 20.6696 19.9997 20.8188 20.2824C21.6806 19.1655 22.1932 17.7654 22.1932 16.2456C22.1932 15.9646 21.9654 15.7368 21.6844 15.7368C21.4034 15.7368 21.1756 15.9646 21.1756 16.2456C21.1756 17.604 20.6917 18.8493 19.8868 19.8186Z" fill="#00695C"/>
    <path fill-rule="evenodd" clip-rule="evenodd" d="M11.5465 16.5374L15.8723 12.2113C16.071 12.0126 16.3932 12.0126 16.5919 12.2113L19.6712 15.2906C19.8699 15.4893 19.8699 15.8114 19.6712 16.0101L15.3453 20.3362C15.1467 20.5349 14.8245 20.5349 14.6258 20.3362L11.5465 17.2569C11.3478 17.0581 11.3478 16.736 11.5465 16.5374ZM16.8397 14.3711C16.7886 14.1666 16.5815 14.0423 16.377 14.0935C16.1725 14.1445 16.0482 14.3517 16.0993 14.5562L16.3219 15.4463L14.2214 16.4966C14.0614 16.5766 13.9785 16.7569 14.0219 16.9304L14.3186 18.1176C14.3698 18.322 14.5769 18.4463 14.7814 18.3952C14.9858 18.3441 15.1101 18.1369 15.059 17.9325L14.8365 17.0423L16.937 15.9921C17.0969 15.9121 17.1799 15.7317 17.1365 15.5582L16.8397 14.3711Z" fill="#00695C"/>
    <path d="M13.5016 20.4042L14.0952 19.8106V19.217H13.5016L12.9081 19.8106C12.7442 19.9746 12.7442 20.2403 12.9081 20.4042C13.072 20.5681 13.3378 20.5681 13.5016 20.4042Z" fill="#00695C"/>
    <path d="M17.36 18.919L16.7664 18.3254H16.1729V18.919L16.7664 19.5126C16.9303 19.6765 17.196 19.6765 17.36 19.5126C17.5239 19.3487 17.5239 19.0829 17.36 18.919Z" fill="#00695C"/>
    <path d="M12.0182 18.9205L12.6118 18.3269V17.7334H12.0182L11.4247 18.3269C11.2608 18.4909 11.2608 18.7566 11.4247 18.9205C11.5886 19.0844 11.8544 19.0844 12.0182 18.9205Z" fill="#00695C"/>
    <path d="M18.8444 17.4388L18.2508 16.8452H17.6572V17.4388L18.2508 18.0323C18.4147 18.1963 18.6805 18.1963 18.8444 18.0323C19.0083 17.8685 19.0083 17.6027 18.8444 17.4388Z" fill="#00695C"/>
    <path d="M12.3143 15.0585L12.9079 15.6521H13.5015V15.0585L12.9079 14.465C12.744 14.3011 12.4782 14.3011 12.3143 14.465C12.1504 14.6289 12.1504 14.8946 12.3143 15.0585Z" fill="#00695C"/>
    <path d="M19.1414 13.5768L18.5479 14.1704V14.7639H19.1414L19.735 14.1704C19.8989 14.0065 19.8989 13.7407 19.735 13.5768C19.5711 13.4129 19.3053 13.4129 19.1414 13.5768Z" fill="#00695C"/>
    <path d="M13.7987 13.5749L14.3923 14.1685H14.9858V13.5749L14.3923 12.9813C14.2284 12.8174 13.9627 12.8174 13.7987 12.9813C13.6348 13.1452 13.6348 13.411 13.7987 13.5749Z" fill="#00695C"/>
    <path d="M17.6571 12.0931L17.0635 12.6867V13.2803H17.6571L18.2506 12.6867C18.4145 12.5228 18.4145 12.257 18.2506 12.0931C18.0867 11.9292 17.8209 11.9292 17.6571 12.0931Z" fill="#00695C"/>
</svg>

<svg width="32" height="32" fill="none" xmlns="http://www.w3.org/2000/svg"><path fill-rule="evenodd" clip-rule="evenodd" d="M8.227 9.213c.334-.35.424-.876.182-1.295l-.187-.322a1.018 1.018 0 0 1 .373-1.392l1.763-1.016a1.018 1.018 0 0 1 1.389.373l.183.316c.242.419.744.603 1.214.488a10.2 10.2 0 0 1 2.436-.293c.858 0 1.69.106 2.486.306.446.112.925-.048 1.18-.43l.267-.402c.297-.447.89-.586 1.355-.318l1.557.897c.51.293.665.955.34 1.445l-.106.16c-.286.43-.2 1.001.162 1.368a10.169 10.169 0 0 1 2.532 4.306c.135.465.546.808 1.03.808h.39c.561 0 1.017.456 1.017 1.018v2.034c0 .562-.456 1.018-1.018 1.018h-.388c-.485 0-.896.342-1.031.807a10.164 10.164 0 0 1-2.421 4.193c-.334.349-.424.876-.182 1.295l.187.323c.282.487.115 1.11-.373 1.391l-1.763 1.016a1.018 1.018 0 0 1-1.389-.372l-.183-.318c-.243-.418-.745-.603-1.214-.488a10.2 10.2 0 0 1-2.435.293c-.87 0-1.715-.109-2.522-.314-.472-.12-.98.063-1.223.485l-.171.296a1.018 1.018 0 0 1-1.389.372l-1.56-.9a1.018 1.018 0 0 1-.374-1.391l.168-.29c.245-.424.15-.957-.192-1.306a10.166 10.166 0 0 1-2.51-4.285c-.135-.464-.547-.807-1.031-.807h-.39a1.018 1.018 0 0 1-1.017-1.017V15.23c0-.562.456-1.018 1.018-1.018h.389c.484 0 .896-.342 1.03-.807a10.165 10.165 0 0 1 2.42-4.192ZM15.58 23.88c1.31 0 2.541-.33 3.618-.911a2.417 2.417 0 0 0 3.102-3.102 7.632 7.632 0 0 0-10.34-10.34 2.417 2.417 0 0 0-3.102 3.102 7.632 7.632 0 0 0 6.72 11.25Z" fill="#CFE5D8"/><path fill-rule="evenodd" clip-rule="evenodd" d="M15.58 21.845a5.597 5.597 0 1 0 0-11.193 5.597 5.597 0 0 0 0 11.193Zm0 1.018a6.614 6.614 0 1 0 0-13.228 6.614 6.614 0 0 0 0 13.228Z" fill="#CFE5D8"/><path fill-rule="evenodd" clip-rule="evenodd" d="M20.031 20.317a.382.382 0 1 0 0 .763.382.382 0 0 0 0-.763Zm-1.4.381a1.4 1.4 0 1 1 2.799 0 1.4 1.4 0 0 1-2.798 0ZM11.127 11.415a.382.382 0 1 0 0 .764.382.382 0 0 0 0-.764Zm-1.4.382a1.4 1.4 0 1 1 2.799 0 1.4 1.4 0 0 1-2.798 0Z" fill="#00695C"/><path fill-rule="evenodd" clip-rule="evenodd" d="M12.007 11.941a5.574 5.574 0 0 1 3.573-1.289.509.509 0 0 0 0-1.017c-1.52 0-2.92.512-4.037 1.374a.89.89 0 0 1 .464.932Zm-.735.735a.89.89 0 0 1-.932-.464 6.585 6.585 0 0 0-1.374 4.037.509.509 0 1 0 1.017 0c0-1.358.484-2.604 1.29-3.573ZM19.152 20.553a5.574 5.574 0 0 1-3.573 1.29.509.509 0 0 0 0 1.017c1.52 0 2.92-.513 4.037-1.375a.89.89 0 0 1-.464-.932Zm.735-.734a.89.89 0 0 1 .932.464 6.585 6.585 0 0 0 1.374-4.037.509.509 0 0 0-1.017 0 5.574 5.574 0 0 1-1.29 3.573ZM11.546 16.537l4.326-4.326a.509.509 0 0 1 .72 0l3.08 3.08a.509.509 0 0 1 0 .72l-4.327 4.325a.509.509 0 0 1-.72 0l-3.079-3.08a.509.509 0 0 1 0-.719Zm5.294-2.166a.381.381 0 1 0-.74.185l.222.89-2.1 1.05a.381.381 0 0 0-.2.434l.297 1.188a.382.382 0 0 0 .74-.185l-.223-.89 2.101-1.05c.16-.08.243-.261.2-.435l-.297-1.187Z" fill="#00695C"/><path d="m13.502 20.404.593-.593v-.594h-.593l-.594.594a.42.42 0 0 0 .594.593ZM17.36 18.919l-.594-.594h-.593v.594l.593.594a.42.42 0 0 0 .594-.594ZM12.018 18.92l.594-.593v-.594h-.594l-.593.594a.42.42 0 0 0 .593.593ZM18.844 17.439l-.593-.594h-.594v.594l.594.593a.42.42 0 1 0 .593-.593ZM12.314 15.059l.594.593h.594v-.593l-.594-.594a.42.42 0 0 0-.594.594ZM19.141 13.577l-.593.593v.594h.593l.594-.594a.42.42 0 0 0-.594-.593ZM13.799 13.575l.593.594h.594v-.594l-.594-.594a.42.42 0 0 0-.593.594ZM17.657 12.093l-.593.594v.593h.593l.594-.593a.42.42 0 0 0-.594-.594Z" fill="#00695C"/></svg>
